src/images/M-logo-black.svg

<?xml version="1.0" encoding="UTF-8"?>
<svg width="168px" height="168px" viewBox="0 0 168 168" version="1.1" xmlns="http://www.w3.org/2000/svg" xmlns:xlink="http://www.w3.org/1999/xlink">
    <!-- Generator: Sketch 52.5 (67469) - http://www.bohemiancoding.com/sketch -->
    <title>Group 3</title>
    <desc>Created with Sketch.</desc>
    <g id="Page-1" stroke="none" stroke-width="1" fill="none" fill-rule="evenodd">
        <g id="Logo" fill="#262626" fill-rule="nonzero">
            <g id="Group-3">
                <path d="M81.4324211,144 L7.88228571,144 L7.88228571,167.2 L0,167.2 L0,5.68434189e-14 L6.688,5.68434189e-14 L83.6,133.76 L160.273143,5.68434189e-14 L166.961143,5.68434189e-14 L167.2,167.2 L159.317714,167.2 L159.078857,16.4811429 L85.7497143,144.030857 L81.4502857,144.030857 L81.4324211,144 Z M76.8008421,136 L72.1692632,128 L7.88228571,128 L7.88228571,136 L76.8008421,136 Z M67.5376842,120 L62.9061053,112 L7.88228571,112 L7.88228571,120 L67.5376842,120 Z M58.2745263,104 L53.6429474,96 L7.88228571,96 L7.88228571,104 L58.2745263,104 Z M49.0113684,88 L44.3797895,80 L7.88228571,80 L7.88228571,88 L49.0113684,88 Z M39.7482105,72 L35.1166316,64 L7.88228571,64 L7.88228571,72 L39.7482105,72 Z M30.4850526,56 L25.8534737,48 L7.88228571,48 L7.88228571,56 L30.4850526,56 Z M21.2218947,40 L16.5903158,32 L7.88228571,32 L7.88228571,40 L21.2218947,40 Z M11.9587368,24 L7.88228571,16.9588571 L7.88228571,24 L11.9587368,24 Z" id="Shape"></path>
            </g>
        </g>
    </g>
</svg>

<svg width="168" height="168" xmlns="http://www.w3.org/2000/svg"><path d="M81.432 144H7.882v23.2H0V0h6.688L83.6 133.76 160.273 0h6.688l.239 167.2h-7.882l-.24-150.719-73.328 127.55h-4.3l-.018-.031zm-4.631-8l-4.632-8H7.882v8h68.919zm-9.263-16l-4.632-8H7.882v8h59.656zm-9.263-16l-4.632-8H7.883v8h50.392zM49.01 88l-4.631-8H7.882v8h41.13zm-9.263-16l-4.631-8H7.882v8h31.866zm-9.263-16l-4.632-8H7.883v8h22.602zm-9.263-16l-4.632-8H7.882v8h13.34zm-9.263-16l-4.077-7.041V24h4.077z" fill="#262626" fill-rule="nonzero"/></svg>
